X: 1
T: Liechtensteiner Polka
C: Ed.Kotscher, R.Lindt
M: 2/4
L: 1/8
K: F
"C7"[B2E2]\
[| "F"[AF] z3 | z[AF] [^GE][AF] |\
  [BG][AF] [^GE][AF] | "C7"[cE] [c2E2]"G7"[=BF] |\
  "C7"[_B2E2] z2 | "C7"[cE] [c2E2] "G7"[=BF] |\
  "C7"[_B2E2] z2 |
w: Oh Ja, das ist die liech-ten-stei-ner Pol-ka mein Schatz!  Pol-ka mein Schatz!
  [dB] [d2B2] [_dB] | "F"[c2A2] z2 |\
  "F"[AF] z3 | z[AF] [^GE][AF] |\
  [BG][AF] [^GE][AF] | "C7"[cE] [c2E2]"G7"[=BF] |\
  "C7"[_B2E2] z2 |
w:  Pol-ka mein Schatz!  Da, bleibt doch kein Liech-ten-stei-ner auf sei-nem Platz!
  "C7"[cE] [c2E2] "G7"[=BF] | "C7"[_B2E2] [E2B,2] |\
  "F"[F4-A,4-] | [FA,][FF] [GE][A_E] |\
  "Bb"[BD][dB] [dB][dB] | [dB][dB] [ec][dB] |
w: Auf sei-nem Platz mein Schatz!* Man kan beim Schie-ben, Schie-ben, Schie-ben, sich in
  "F"[dA][cA] [cA][=B^G] | [cA][FC] "A7"[E^C][FC] |\
  "Dm"[AF][AF] [AF][AF] | [AF][AF] "G7"[GE][FD] |\
  "C7"[AF]>[GE] [GE][^F^D] | [GE]z "C+"[^G2E2] |
w: bei-de Au-gen seh'n. Man muss sich  lie-ben, lie-ben, lie-ben, und die Lie-be, die ist sch\"on! Oh
  "F"[AF] z3 | z[AF] [^GE][AF] |\
  [BG][AF] [^GE][AF] | "C7"[cE] [c2E2]"G7"[=BF] |\
  "C7"[B4E4] |\
  "C7"[cE] [c2E2] "G7"[=BF] | "C7"[_B2E2] [E2B,2] |\
  "F fine"H[F-A,-]z [A2C2] | "G7"[G=B,]z z[GF] ||[K:C=B]
w: Ja, So ei-ne Liech-ten-stei-ner Pol-ka die hat's, die macht Ra-batz, mein Schatz!** Der
K:C
|| "C"[AE]>[GE] [GE][GE] | [AE][AE] [G2E2] |\
  [G2E2] [c2E2] | "G7"[B3G3] [GF] |\
  [AF]>[GF] [GF][GF] | [AF][AF] [G2F2] |\
  [G2F2][d2F2] | "C"[c3E3] [GE] |
w: al-te Herr von Liech-ten-stein, Ja! Ja! Ja! De konn-te nicht al-lei-ne sein, Nein! Nein! Nein! Er
|| "C"[AE]>[GE] [GE][GE] | [AE][AE] [G2E2] |\
  [G2E2] [c2E2] | "G7"[B3G3] [dB] |\
  "D7"[eA]>[d^F] [dF][dF] | "G"[eG]>[dB] [dB][eG] |\
  "D7"[d^F][cE] [BD][AC] | "G"[G3B,3] [GB,] |
w: schick-te sei-ne Bo-ten aus, Ja! Ja! Ja! Schaut mir nach Mu-si-kan-ten aus und schickt sie mir in's Haus! Die
  "G"[GB,][GB,] "C"[GC][GC] | "G"[G3B,3] [GF] |\
  "G7"[GF][^GF] [AF][BF] | "C"[cE]z "d.C"y|]
w: Mu-sik leg-te los, da wuss-ten Klein und Gross.
